X: 7
T:POLKA A GREGOIRE
M:2/4
L:1/8
Q:160
C:M.P.
K:C
eed2|ccd2|eedd|ccBG|eed2|ccd2|GGAA|edc2:|
|:cBdc|edfd|gafg|efde|1cBdc|edfe|e2d2|c4:|2c2g2|e2g2|c4||
